material/.icons/material/sass.svg

<svg xmlns="http://www.w3.org/2000/svg" viewBox="0 0 24 24"><path d="M12 2a10 10 0 0110 10 10 10 0 01-10 10A10 10 0 012 12 10 10 0 0112 2m-2 13.33c.16.54.14 1.04 0 1.5 0 .05-.04.1-.06.17-.02 0-.04.07-.07.12-.11.24-.27.47-.46.67-.58.64-1.41.88-1.74.68-.38-.22-.17-1.12.49-1.83.72-.76 1.76-1.26 1.76-1.26l.08-.05m8.27-9.05c-.45-1.78-3.4-2.36-6.18-1.37-1.66.59-3.46 1.51-4.75 2.72-1.53 1.44-1.78 2.69-1.68 3.21.34 1.84 2.88 3.05 3.92 3.94v.01c-.3.15-2.54 1.28-3.08 2.44-.54 1.22.1 2.1.5 2.22 1.34.36 2.69-.29 3.41-1.38.7-1.04.65-2.39.34-3.07.42-.1.91-.15 1.53-.08 1.76.21 2.1 1.3 2.03 1.76-.06.46-.43.71-.55.79-.12.07-.16.1-.15.16.01.08.07.08.17.06.15-.03.93-.37.96-1.22.04-1.08-.99-2.28-2.81-2.25-.75.02-1.22.09-1.56.22l-.08-.09c-1.13-1.2-3.21-2.05-3.12-3.67.03-.59.23-2.13 4-4.01 3.08-1.54 5.55-1.12 5.98-.17.61 1.33-1.32 3.82-4.52 4.18-1.22.14-1.87-.34-2.03-.51-.17-.17-.19-.2-.25-.17-.11.07-.04.23 0 .33.09.25.49.67 1.15.91.59.19 2.03.3 3.76-.37 1.94-.75 3.46-2.84 3.01-4.59z"/></svg>

<?xml version="1.0" encoding="UTF-8"?><!DOCTYPE svg PUBLIC "-//W3C//DTD SVG 1.1//EN" "http://www.w3.org/Graphics/SVG/1.1/DTD/svg11.dtd"><svg xmlns="http://www.w3.org/2000/svg" xmlns:xlink="http://www.w3.org/1999/xlink" version="1.1" id="mdi-sass" width="24" height="24" viewBox="0 0 24 24"><path d="M12,2A10,10 0 0,1 22,12A10,10 0 0,1 12,22A10,10 0 0,1 2,12A10,10 0 0,1 12,2M10,15.33C10.16,15.87 10.14,16.37 10,16.83C10,16.88 9.96,16.93 9.94,17C9.92,17 9.9,17.07 9.87,17.12C9.76,17.36 9.6,17.59 9.41,17.79C8.83,18.43 8,18.67 7.67,18.47C7.29,18.25 7.5,17.35 8.16,16.64C8.88,15.88 9.92,15.38 9.92,15.38V15.38L10,15.33M18.27,6.28C17.82,4.5 14.87,3.92 12.09,4.91C10.43,5.5 8.63,6.42 7.34,7.63C5.81,9.07 5.56,10.32 5.66,10.84C6,12.68 8.54,13.89 9.58,14.78V14.79C9.28,14.94 7.04,16.07 6.5,17.23C5.96,18.45 6.6,19.33 7,19.45C8.34,19.81 9.69,19.16 10.41,18.07C11.11,17.03 11.06,15.68 10.75,15C11.17,14.9 11.66,14.85 12.28,14.92C14.04,15.13 14.38,16.22 14.31,16.68C14.25,17.14 13.88,17.39 13.76,17.47C13.64,17.54 13.6,17.57 13.61,17.63C13.62,17.71 13.68,17.71 13.78,17.69C13.93,17.66 14.71,17.32 14.74,16.47C14.78,15.39 13.75,14.19 11.93,14.22C11.18,14.24 10.71,14.31 10.37,14.44L10.29,14.35C9.16,13.15 7.08,12.3 7.17,10.68C7.2,10.09 7.4,8.55 11.17,6.67C14.25,5.13 16.72,5.55 17.15,6.5C17.76,7.83 15.83,10.32 12.63,10.68C11.41,10.82 10.76,10.34 10.6,10.17C10.43,10 10.41,9.97 10.35,10C10.24,10.07 10.31,10.23 10.35,10.33C10.44,10.58 10.84,11 11.5,11.24C12.09,11.43 13.53,11.54 15.26,10.87C17.2,10.12 18.72,8.03 18.27,6.28Z" /></svg>
